X:330
T:the North Britons
A:Wyresdale, Lancashire
B:H.S.J. Jackson, 1823
L:1/8
M:2/4
O:England
Z:Richard Robinson 
%%TranscriptionNotes:(dance notes not transcribed, incompletely legible)
%%TUNEURL: http://www.leeds.ac.uk/music/Info/RRTuneBk/gettune/00000e1e.html
%%ID:00000e1e
K:F
c | \
c>f d/c/B/A/ | B>d f>d | cd cF | EGGc | \
c>f d/c/B/A/ | B>df>d | egcb | aff ::
f |\
cfaf  | bagf | d<gg>f | egga | \
c>faf | bagf | ecde   | f2f ::
